src/svgs/Sync.svg

<?xml version="1.0" encoding="UTF-8"?>
<svg width="24px" height="24px" viewBox="0 0 24 24" version="1.1" xmlns="http://www.w3.org/2000/svg" xmlns:xlink="http://www.w3.org/1999/xlink">
    <!-- Generator: Sketch 57.1 (83088) - https://sketch.com -->
    <title>sync</title>
    <desc>Created with Sketch.</desc>
    <g id="Symbols" stroke="none" stroke-width="1" fill="none" fill-rule="evenodd">
        <g id="Icon/library/sync" fill="#339CF2">
            <path d="M5,10 L8,13 L6.08309386,13.0008069 C6.55950437,15.8381232 9.02728549,18 12,18 C14.4332621,18 16.5282214,16.551554 17.4696979,14.4698423 L18.9549622,15.956082 C17.5780838,18.3714861 14.9792218,20 12,20 C7.92071147,20 4.55453501,16.9468043 4.06201291,13.0009551 L2,13 L4.07095476,10.9298613 C4.0710433,10.9291989 4.07113193,10.9285366 4.07122064,10.9278743 L5,10 Z M12,4 C16.0796344,4 19.4460359,7.05371356 19.9381123,11.0000487 L22,11 L19.9287771,13.0721427 L19.928511,13.0741277 L19,14 L16,11 L17.9170737,11.0001915 C17.4410745,8.16238395 14.9730632,6 12,6 C9.56673795,6 7.47177858,7.44844597 6.53030209,9.53015773 L5.04503778,8.04391799 C6.42191616,5.62851394 9.02077817,4 12,4 Z" id="Combined-Shape"></path>
        </g>
    </g>
</svg>

<svg xmlns="http://www.w3.org/2000/svg" width="24" height="24" viewBox="0 0 24 24">
    <path fill="#339CF2" fill-rule="evenodd" d="M5 10l3 3H6.083a6.002 6.002 0 0 0 11.387 1.47l1.485 1.486a8.001 8.001 0 0 1-14.893-2.955L2 13l2.071-2.07v-.002L5 10zm7-6a8.001 8.001 0 0 1 7.938 7H22l-2.071 2.072v.002L19 14l-3-3h1.917A6.002 6.002 0 0 0 6.53 9.53L5.045 8.044A7.997 7.997 0 0 1 12 4z"/>
</svg>
